src/assets/catalogSvg/air_icon.svg

<svg width="20" height="20" viewBox="0 0 20 20" fill="none" xmlns="http://www.w3.org/2000/svg">
<g clip-path="url(#clip0_12164_441)">
<path d="M15.625 2.5C14.7962 2.5 14.0013 2.82924 13.4153 3.41529C12.8292 4.00134 12.5 4.7962 12.5 5.625C12.5 5.79076 12.4342 5.94973 12.3169 6.06694C12.1997 6.18415 12.0408 6.25 11.875 6.25C11.7092 6.25 11.5503 6.18415 11.4331 6.06694C11.3158 5.94973 11.25 5.79076 11.25 5.625C11.25 4.75971 11.5066 3.91385 11.9873 3.19438C12.4681 2.47492 13.1513 1.91416 13.9508 1.58303C14.7502 1.25189 15.6299 1.16525 16.4785 1.33406C17.3272 1.50287 18.1067 1.91955 18.7186 2.53141C19.3304 3.14326 19.7471 3.92281 19.9159 4.77148C20.0847 5.62015 19.9981 6.49981 19.667 7.29924C19.3358 8.09867 18.7751 8.78195 18.0556 9.26268C17.3362 9.74341 16.4903 10 15.625 10H0.625C0.45924 10 0.300269 9.93415 0.183058 9.81694C0.065848 9.69973 0 9.54076 0 9.375C0 9.20924 0.065848 9.05027 0.183058 8.93306C0.300269 8.81585 0.45924 8.75 0.625 8.75H15.625C16.4538 8.75 17.2487 8.42076 17.8347 7.83471C18.4208 7.24866 18.75 6.4538 18.75 5.625C18.75 4.7962 18.4208 4.00134 17.8347 3.41529C17.2487 2.82924 16.4538 2.5 15.625 2.5ZM6.875 3.75C6.54348 3.75 6.22554 3.8817 5.99112 4.11612C5.7567 4.35054 5.625 4.66848 5.625 5C5.625 5.16576 5.55915 5.32473 5.44194 5.44194C5.32473 5.55915 5.16576 5.625 5 5.625C4.83424 5.625 4.67527 5.55915 4.55806 5.44194C4.44085 5.32473 4.375 5.16576 4.375 5C4.375 4.50555 4.52162 4.0222 4.79633 3.61107C5.07103 3.19995 5.46148 2.87952 5.91829 2.6903C6.37511 2.50108 6.87777 2.45157 7.36273 2.54804C7.84768 2.6445 8.29314 2.8826 8.64277 3.23223C8.9924 3.58186 9.2305 4.02732 9.32696 4.51227C9.42343 4.99723 9.37392 5.49989 9.1847 5.95671C8.99548 6.41352 8.67505 6.80397 8.26393 7.07867C7.8528 7.35338 7.36945 7.5 6.875 7.5H0.625C0.45924 7.5 0.300269 7.43415 0.183058 7.31694C0.065848 7.19973 0 7.04076 0 6.875C0 6.70924 0.065848 6.55027 0.183058 6.43306C0.300269 6.31585 0.45924 6.25 0.625 6.25H6.875C7.20652 6.25 7.52446 6.1183 7.75888 5.88388C7.9933 5.64946 8.125 5.33152 8.125 5C8.125 4.66848 7.9933 4.35054 7.75888 4.11612C7.52446 3.8817 7.20652 3.75 6.875 3.75ZM0 11.875C0 11.7092 0.065848 11.5503 0.183058 11.4331C0.300269 11.3158 0.45924 11.25 0.625 11.25H13.1775C13.9192 11.25 14.6442 11.4699 15.2609 11.882C15.8776 12.294 16.3582 12.8797 16.642 13.5649C16.9259 14.2502 17.0001 15.0042 16.8554 15.7316C16.7108 16.459 16.3536 17.1272 15.8292 17.6517C15.3047 18.1761 14.6365 18.5333 13.9091 18.6779C13.1817 18.8226 12.4277 18.7484 11.7424 18.4645C11.0572 18.1807 10.4715 17.7001 10.0595 17.0834C9.64743 16.4667 9.4275 15.7417 9.4275 15C9.4275 14.8342 9.49335 14.6753 9.61056 14.5581C9.72777 14.4408 9.88674 14.375 10.0525 14.375C10.2183 14.375 10.3772 14.4408 10.4944 14.5581C10.6117 14.6753 10.6775 14.8342 10.6775 15C10.6775 15.4945 10.8241 15.9778 11.0988 16.3889C11.3735 16.8 11.764 17.1205 12.2208 17.3097C12.6776 17.4989 13.1803 17.5484 13.6652 17.452C14.1502 17.3555 14.5956 17.1174 14.9453 16.7678C15.2949 16.4181 15.533 15.9727 15.6295 15.4877C15.7259 15.0028 15.6764 14.5001 15.4872 14.0433C15.298 13.5865 14.9775 13.196 14.5664 12.9213C14.1553 12.6466 13.672 12.5 13.1775 12.5H0.625C0.45924 12.5 0.300269 12.4342 0.183058 12.3169C0.065848 12.1997 0 12.0408 0 11.875Z" fill="#101828"/>
</g>
<defs>
<clipPath id="clip0_12164_441">
<rect width="20" height="20" fill="white"/>
</clipPath>
</defs>
</svg>

<svg fill="none" version="1.1" viewBox="0 0 20 20" xmlns="http://www.w3.org/2000/svg">
 <path d="m15.62 2.5c-0.8288 0-1.624 0.3292-2.21 0.9153-0.5861 0.586-0.9153 1.381-0.9153 2.21 0 0.1658-0.0658 0.3247-0.1831 0.4419-0.1172 0.1172-0.2761 0.1831-0.4419 0.1831s-0.3247-0.06585-0.4419-0.1831c-0.1173-0.1172-0.1831-0.2762-0.1831-0.4419 0-0.8653 0.2566-1.711 0.7373-2.431 0.4808-0.7195 1.164-1.28 1.964-1.611 0.7994-0.3311 1.679-0.4178 2.528-0.249 0.8487 0.1688 1.628 0.5855 2.24 1.197 0.6118 0.6118 1.028 1.391 1.197 2.24s0.0822 1.728-0.2489 2.528c-0.3312 0.7994-0.8919 1.483-1.611 1.963-0.7194 0.4807-1.565 0.7373-2.431 0.7373h-15c-0.1658 0-0.3247-0.06585-0.4419-0.1831-0.1172-0.1172-0.1831-0.2762-0.1831-0.4419s0.06585-0.3247 0.1831-0.4419c0.1172-0.1172 0.2762-0.1831 0.4419-0.1831h15c0.8288 0 1.624-0.3292 2.21-0.9153 0.5861-0.586 0.9153-1.381 0.9153-2.21s-0.3292-1.624-0.9153-2.21c-0.586-0.586-1.381-0.9153-2.21-0.9153zm-8.75 1.25c-0.3315 0-0.6495 0.1317-0.8839 0.3661s-0.3661 0.5524-0.3661 0.8839c0 0.1658-0.06585 0.3247-0.1831 0.4419s-0.2762 0.1831-0.4419 0.1831-0.3247-0.06585-0.4419-0.1831-0.1831-0.2762-0.1831-0.4419c0-0.4944 0.1466-0.9778 0.4213-1.389 0.2747-0.4111 0.6652-0.7316 1.122-0.9208 0.4568-0.1892 0.9595-0.2387 1.444-0.1423 0.485 0.09646 0.9304 0.3346 1.28 0.6842s0.5877 0.7951 0.6842 1.28c0.09647 0.485 0.04696 0.9876-0.1423 1.444-0.1892 0.4568-0.5096 0.8473-0.9208 1.122-0.4111 0.2747-0.8945 0.4213-1.389 0.4213h-6.25c-0.1658 0-0.3247-0.06585-0.4419-0.1831-0.1172-0.1172-0.1831-0.2762-0.1831-0.4419s0.06585-0.3247 0.1831-0.4419c0.1172-0.1172 0.2762-0.1831 0.4419-0.1831h6.25c0.3315 0 0.6495-0.1317 0.8839-0.3661s0.3661-0.5524 0.3661-0.8839-0.1317-0.6495-0.3661-0.8839-0.5524-0.3661-0.8839-0.3661zm-6.875 8.125c0-0.1658 0.06585-0.3247 0.1831-0.4419 0.1172-0.1173 0.2762-0.1831 0.4419-0.1831h12.55c0.7417 0 1.467 0.2199 2.083 0.632 0.6167 0.412 1.097 0.9977 1.381 1.683 0.2839 0.6853 0.3581 1.439 0.2134 2.167-0.1446 0.7274-0.5018 1.396-1.026 1.92-0.5245 0.5244-1.193 0.8816-1.92 1.026-0.7274 0.1447-1.481 0.0705-2.167-0.2134-0.6852-0.2838-1.271-0.7644-1.683-1.381-0.4121-0.6167-0.632-1.342-0.632-2.083 0-0.1658 0.06585-0.3247 0.1831-0.4419 0.1172-0.1173 0.2762-0.1831 0.4419-0.1831 0.1658 0 0.3247 0.0658 0.4419 0.1831 0.1173 0.1172 0.1831 0.2761 0.1831 0.4419 0 0.4945 0.1466 0.9778 0.4213 1.389s0.6652 0.7316 1.122 0.9208 0.9595 0.2387 1.444 0.1423c0.485-0.0965 0.9304-0.3346 1.28-0.6842 0.3496-0.3497 0.5877-0.7951 0.6842-1.28 0.0964-0.4849 0.0469-0.9876-0.1423-1.444s-0.5097-0.8473-0.9208-1.122-0.8944-0.4213-1.389-0.4213h-12.55c-0.1658 0-0.3247-0.0658-0.4419-0.1831-0.1172-0.1172-0.1831-0.2761-0.1831-0.4419z" fill="#101828"/>
</svg>
